X: 32
T: Missa La Martinella / Sanctus
N: Derived from Mar1009d-Missa_La_Martinella-Sanctus.krn
C: Johannes Martini
%%abc-version 2.0
%%abcx-abcm2ps-target-version 5.9.1 (29 Sep 2008)
%%abc-creator hum2abc beta
%%abcx-conversion-date 2019/02/17 07:19:41
%%abc-edited-by Jesse Rodin
%%abc-edited-by Chris Gage 10-21-2014
%%abcx-initial-encoding-date 2014/10/26/
%%humdrum-veritas 611732203
%%humdrum-veritas-data 3792991031
%%linebreak <none>
%%barnumbers 0
L: 1/4
M: 4/2
Q: 1/2=120
%%staves [1 2 3 4]
V: 1 clef=treble
V: 2 clef=treble-8
V: 3 clef=treble-8
V: 4 clef=bass
K: F
[V:1] G8 | 
[V:2] z8 | 
[V:3] z8 :
[V:4] z8 | 
[V:1] F4G4 | 
[V:2] z8 | 
[V:3] x8 :
[V:4] z8 | 
[V:1] B8 | 
[V:2] G8 | 
[V:3] x8 | 
[V:4] z8 | 
[V:1] A4G3F | 
[V:2] F4G4 | 
[V:3] z8 :
[V:4] z8 | 
[V:1] D2F3EC2 | 
[V:2] B4A4 | 
[V:3] x8 :
[V:4] z8 | 
[V:1] B,2D3EFG | 
[V:2] G6FE | 
[V:3] x8 | 
[V:4] z8 | 
[V:1] A2F2G2B2- | 
[V:2] D4z2G2- | 
[V:3] z8 :
[V:4] z8 | 
[V:1] B2AGF2G2 | 
[V:2] GABcd2B2 | 
[V:3] x8 :
[V:4] z8 | 
[V:1] A2G4FE | 
[V:2] c2_e4dc | 
[V:3] x8 | 
[V:4] z8 | 
[V:1] D2E2F2G2 | 
[V:2] B2c2d2c2- | 
[V:3] z8 :
[V:4] z8 | 
[V:1] A2B3AG2- | 
[V:2] c2BAG2B2 | 
[V:3] x8 :
[V:4] z8 | 
[V:1] G2^F2G4 | 
[V:2] A4G2B2- | 
[V:3] x8 | 
[V:4] z2D,2E,2G,2- | 
[V:1] D4F4- | 
[V:2] BAB2c2d2- | 
[V:3] z8 :
[V:4] G,F,G,2A,2B,2- | 
[V:1] F2G2A4 | 
[V:2] d2e2f4- | 
[V:3] x4D4- :
[V:4] B,2A,G,F,4 | 
[V:1] B4A4 | 
[V:2] f2d6 | 
[V:3] D8 | 
[V:4] B,,4z4 | 
[V:1] G2d4c2 | 
[V:2] B3cd2_e2- | 
[V:3] G8- :
[V:4] G,,3A,,B,,2C,2 | 
[V:1] B2AGF2A2 | 
[V:2] eBc2d4- | 
[V:3] G4A4 :
[V:4] _E,4D,4 | 
[V:1] G2B3cd2 | 
[V:2] d4d4 | 
[V:3] B4G4 | 
[V:4] G,3A,B,4 | 
[V:1] c2A3Bc2- | 
[V:2] f6cd | 
[V:3] c8- :
[V:4] F,6E,D, | 
[V:1] cBAGA4 | 
[V:2] _e3dcBc2 | 
[V:3] c4A4 :
[V:4] C,4F,4 | 
[V:1] B8 | 
[V:2] B4G3A | 
[V:3] d4B4 | 
[V:4] B,,4_E,4 | 
[V:1] z2B3BA2- | 
[V:2] B2G2B2c2- | 
[V:3] _e8 :
[V:4] _E,6C,2 | 
[V:1] AGG4^F2 | 
[V:2] cBAGA4 | 
[V:3] c6d2 :
[V:4] F,2_E,2D,4 | 
[V:1] G4z4 | 
[V:2] z2B3AA2- | 
[V:3] _e4f4 | 
[V:4] C,2_E,2D,3C, | 
[V:1] z2d2c2A2 | 
[V:2] AGG4^F2 | 
[V:3] B4c4 :
[V:4] D,2B,,2A,,4 | 
[V:1] B2AGF2GB- | 
[V:2] G2B2A2G2 | 
[V:3] d4c4- :
[V:4] G,,4z4 | 
[V:1] BA/G/A2B4 | 
[V:2] F4f4 | 
[V:3] c4B4 | 
[V:4] z4B,,4 | 
[V:1] F6G2 | 
[V:2] d4d2c2- | 
[V:3] A8 | 
[V:4] D,6E,2 | 
[V:1] A4B2A2- | 
[V:2] cBA2G2F2 | 
[V:3] [M:2/1]z8 :
[V:4] F,4G,2D,2 | 
[V:1] AGG2- :
[V:2] B2c2 :
[V:3] x4 | 
[V:4] E,2C,2 :
[V:1] G2^F2 [I:setbarnb 31]| 
[V:2] A4 | 
[V:3] z4 :
[V:4] D,4 | 
[V:1] G2D2z2A,2 | 
[V:2] z2G3F/E/F2 | 
[V:3] x8 | 
[V:4] G,,2B,,2A,,4 | 
[V:1] B,2A,2D4 | 
[V:2] GBcA2G/F/G2 | 
[V:3] z8 :
[V:4] G,,2F,,2B,,4 | 
[V:1] C2B,2 :
[V:2] AcdB- :
[V:3] x4 | 
[V:4] A,,2G,,2 :
[V:1] _E4 [I:setbarnb 34]| 
[V:2] BA/G/A2 | 
[V:3] z4 :
[V:4] C,4 | 
[V:1] D2C2F4 | 
[V:2] Bd_ec2B/A/B2 | 
[V:3] x8 | 
[V:4] B,,2A,,2D,4 | 
[V:1] E2D2G4 | 
[V:2] cefd2c/B/c2 | 
[V:3] z8 :
[V:4] C,2B,,2_E,4 | 
[V:1] F4 :
[V:2] d4 :
[V:3] D4 | 
[V:4] D,2B,,2 :
[V:1] G3F [I:setbarnb 37]| 
[V:2] D2E2- | 
[V:3] G4 :
[V:4] G,,2C,2- | 
[V:1] E2D2C4 | 
[V:2] ECD2EFG2- | 
[V:3] A2B2G2c2- | 
[V:4] C,2B,,2C,B,,A,,G,, | 
[V:1] A,2C2B,2G,2 | 
[V:2] G2^F2G4- | 
[V:3] c2A2d2B2 :
[V:4] A,,4G,,4 | 
[V:1] z2G2 :
[V:2] G2_E2 :
[V:3] _e4 | 
[V:4] C,3D,/E,/ :
[V:1] A2B2 [I:setbarnb 40]| 
[V:2] A2F2 | 
[V:3] c3d :
[V:4] F,2D,2 | 
[V:1] c2F2G2A2 | 
[V:2] G2d3ef2- | 
[V:3] e2f2B2c2 | 
[V:4] C,2D,2G,2F,2 | 
[V:1] B2A3GG2- | 
[V:2] fgf3edc | 
[V:3] d2c4B2 :
[V:4] B,,2F,4G,2 | 
[V:1] G2^F2 :
[V:2] d4 :
[V:3] A4 | 
[V:4] D,4 :
[V:1] G4 [I:setbarnb 43]| 
[V:2] d4- | 
[V:3] G4- | 
[V:4] G,,4- | 
[V:1] G8 ||  
[V:2] d8 ||  
[V:3] G8 ||  
[V:4] G,,8 ||  
[V:1]  [K:F] [K:clef=treble][M:2/1]D8- | 
[V:2]  [K:F] [K:clef=treble-8][M:2/1]G8 | 
[V:3]  [K:F] [K:clef=treble-8][M:2/1]z8 | 
[V:4]  [K:F] [K:clef=bass][M:2/1]z8 | 
[V:1] D8- | 
[V:2] F4G4 | 
[V:3] z8 | 
[V:4] z8 | 
[V:1] D8- | 
[V:2] B8 | 
[V:3] z8 | 
[V:4] G,8 | 
[V:1] D8- | 
[V:2] A4G4- | 
[V:3] z8 | 
[V:4] F,4G,4 | 
[V:1] D8- | 
[V:2] G2FED4 | 
[V:3] z8 | 
[V:4] B,8 | 
[V:1] D8 | 
[V:2] F4G2B2- | 
[V:3] z8 | 
[V:4] A,4G,4- | 
[V:1] D8 | 
[V:2] B2AGF4 | 
[V:3] z8 | 
[V:4] G,2F,E,D,2F,2- | 
[V:1] F8- | 
[V:2] A4B2d2- | 
[V:3] z8 | 
[V:4] F,E,D,C,B,,4 | 
[V:1] F8 | 
[V:2] dcB2A4 | 
[V:3] z8 | 
[V:4] A,,2B,,2C,2D,2 | 
[V:1] G8 | 
[V:2] G4z4 | 
[V:3] z8 | 
[V:4] G,,2G,3A,B,C | 
[V:1] F4G4 | 
[V:2] z8 | 
[V:3] z8 | 
[V:4] A,4z2G,2- | 
[V:1] B8 | 
[V:2] z8 | 
[V:3] z8 | 
[V:4] G,A,B,4A,G, | 
[V:1] A4G4- | 
[V:2] z8 | 
[V:3] z8 | 
[V:4] ^F,4G,4 | 
[V:1] G2FED4 | 
[V:2] z2G3ABc | 
[V:3] z8 | 
[V:4] z8 | 
[V:1] F4G2B2- | 
[V:2] A4z2G2- | 
[V:3] z8 | 
[V:4] z8 | 
[V:1] B2AGF4 | 
[V:2] GAB4AG | 
[V:3] z8 | 
[V:4] z8 | 
[V:1] A4B2d2- | 
[V:2] F4G3F | 
[V:3] z8 | 
[V:4] z8 | 
[V:1] d2c2A2c2- | 
[V:2] D2F3GA2- | 
[V:3] z8 | 
[V:4] z8 | 
[V:1] cBA2G2B2 | 
[V:2] ABcd_e2d2- | 
[V:3] z8 | 
[V:4] z8 | 
[V:1] AGG4^F2 | 
[V:2] dGB2A4 | 
[V:3] z8 | 
[V:4] z8 | 
[V:1] G4z4 | 
[V:2] G2B3cd2- | 
[V:3] z8 | 
[V:4] G,,4B,,4- | 
[V:1] z8 | 
[V:2] d2e2f2d2- | 
[V:3] z8 | 
[V:4] B,,2C,2D,4 | 
[V:1] z8 | 
[V:2] d2cBcBAG | 
[V:3] z8 | 
[V:4] _E,8 | 
[V:1] D4F4- | 
[V:2] F4D4- | 
[V:3] z8 | 
[V:4] D,3C,B,,A,,D,2- | 
[V:1] F2G2A4 | 
[V:2] D2E2F4 | 
[V:3] z8 | 
[V:4] D,2C,B,,A,,4 | 
[V:1] B8 | 
[V:2] G8 | 
[V:3] z8 | 
[V:4] G,,8 | 
[V:1] A3GFEA2- | 
[V:2] D4F4- | 
[V:3] z8 | 
[V:4] z8 | 
[V:1] A2GFE2F2- | 
[V:2] F2G2A4 | 
[V:3] z8 | 
[V:4] z8 | 
[V:1] FEG3FED | 
[V:2] B8 | 
[V:3] z8 | 
[V:4] z8 | 
[V:1] C2F4ED | 
[V:2] A3GFEA2- | 
[V:3] z8 | 
[V:4] z8 | 
[V:1] C2D4^C2 | 
[V:2] A2GFE4 | 
[V:3] z8 | 
[V:4] z8 | 
[V:1] D8 | 
[V:2] D4z2d2- | 
[V:3] z8 | 
[V:4] z4B,,3C, | 
[V:1] z8 | 
[V:2] d2c2B2AG | 
[V:3] z8 | 
[V:4] D,2E,F,G,2F,E, | 
[V:1] z8 | 
[V:2] F2A2G2B2 | 
[V:3] z8 | 
[V:4] D,2F,2E,2D,2 | 
[V:1] z8 | 
[V:2] A2c3BB2- | 
[V:3] z8 | 
[V:4] F,3E,F,2D,2 | 
[V:1] z4z2d2- | 
[V:2] B2A2B3c | 
[V:3] z8 | 
[V:4] C,4B,,4 | 
[V:1] d2c2B2AG | 
[V:2] d2efg2fe | 
[V:3] z8 | 
[V:4] z8 | 
[V:1] F2A2G2B2 | 
[V:2] d2f2e2d2 | 
[V:3] z8 | 
[V:4] z8 | 
[V:1] A2c3BB2- | 
[V:2] f3ef2d2 | 
[V:3] z8 | 
[V:4] F,8 | 
[V:1] B2A2B4 | 
[V:2] c4B4 | 
[V:3] z8 | 
[V:4] F,4G,4- | 
[V:1] z4F4- | 
[V:2] z8 | 
[V:3] z8 | 
[V:4] G,2F,E,D,4 | 
[V:1] F4F4 | 
[V:2] z8 | 
[V:3] z8 | 
[V:4] A,,2D,3C,B,,A,, | 
[V:1] G6FE | 
[V:2] z8 | 
[V:3] z8 | 
[V:4] G,,8 | 
[V:1] D4A,2D2- | 
[V:2] f8- | 
[V:3] z8 | 
[V:4] z8 | 
[V:1] DCB,A,G,2C2- | 
[V:2] f4g4- | 
[V:3] z8 | 
[V:4] z8 | 
[V:1] CB,C2D2F2- | 
[V:2] g2fed4 | 
[V:3] z8 | 
[V:4] z8 | 
[V:1] FEF2D2G2- | 
[V:2] A2d3cBA | 
[V:3] z8 | 
[V:4] z4G,3F, | 
[V:1] GFEDE4 | 
[V:2] G2c3Bc2 | 
[V:3] z8 | 
[V:4] G,2A,3G,A,2 | 
[V:1] D8 | 
[V:2] d2B3AB2 | 
[V:3] z8 | 
[V:4] B,2G,2D,2G,2- | 
[V:1] z8 | 
[V:2] G2c3BAG | 
[V:3] z8 | 
[V:4] G,F,E,D,C,2D,2- | 
[V:1] z8 | 
[V:2] A2G4^F2 | 
[V:3] z8 | 
[V:4] D,2B,,2A,,4 | 
[V:1] z2B3AB2 | 
[V:2] G3ABcd2 | 
[V:3] z8 | 
[V:4] G,,4z4 | 
[V:1] G2c3BAG | 
[V:2] B2A2c3B | 
[V:3] z8 | 
[V:4] z8 | 
[V:1] A2G4^F2 | 
[V:2] AGB2A4 | 
[V:3] z8 | 
[V:4] z8 | 
[V:1] G4F2B2 | 
[V:2] G2B4AG | 
[V:3] z8 | 
[V:4] z2G,,2B,,3C, | 
[V:1] A2G2A3G | 
[V:2] F2B2A2c2- | 
[V:3] z8 | 
[V:4] D,2G,,2z2A,,2 | 
[V:1] E2G4FE | 
[V:2] c2BAG2c2 | 
[V:3] z8 | 
[V:4] C,3D,E,2A,,2 | 
[V:1] D2F4ED | 
[V:2] B2d4cB | 
[V:3] z8 | 
[V:4] z2B,,2D,3E, | 
[V:1] C2D2C2B,A, | 
[V:2] A2f2e2g2- | 
[V:3] z8 | 
[V:4] F,2B,,2z2C,2 | 
[V:1] G,3A,B,2C2 | 
[V:2] g2fed2z2 | 
[V:3] z8 | 
[V:4] E,3F,G,2C,2 | 
[V:1] A,2A4GF | 
[V:2] e2f3ed2 | 
[V:3] z8 | 
[V:4] z2D,2F,3G, | 
[V:1] E2F4ED | 
[V:2] c2d2A2B2- | 
[V:3] z8 | 
[V:4] A,2D,2z2G,,2 | 
[V:1] D2B2A2B2- | 
[V:2] BAG2F2G2 | 
[V:3] z8 | 
[V:4] B,,3C,D,2G,,2 | 
[V:1] BAG4^F2 | 
[V:2] F2G2A4 | 
[V:3] z8 | 
[V:4] D,2_E,2D,4 | 
[V:1] G8 ||  
[V:2] G8 ||  
[V:3] z8 ||  
[V:4] G,,8 ||  
[V:1]  [K:F] [K:clef=treble][M:2/1]A8 | 
[V:2]  [K:F] [K:clef=treble-8][M:2/1]d8- | 
[V:3]  [K:F] [K:clef=treble-8][M:4/2]z8 :
[V:4]  [K:F] [K:clef=bass][M:2/1]z8 | 
[V:1] B4A4- | 
[V:2] d4c4 | 
[V:3] x8 | 
[V:4] z8 | 
[V:1] A2G2F4 | 
[V:2] A4B4 | 
[V:3] z8 :
[V:4] z8 | 
[V:1] E2A4G2 | 
[V:2] c4B4 | 
[V:3] x8 | 
[V:4] z8 | 
[V:1] A4z4 | 
[V:2] A8 | 
[V:3] z8 :
[V:4] D,8- | 
[V:1] z8 | 
[V:2] B4A4- | 
[V:3] x8 | 
[V:4] D,4C,4 | 
[V:1] z8 | 
[V:2] A2G2F4 | 
[V:3] z8 :
[V:4] A,,4B,,4 | 
[V:1] z4D4 | 
[V:2] E2A4G2 | 
[V:3] x8 | 
[V:4] C,4B,,4 | 
[V:1] C2F2D2E2- | 
[V:2] A4B2G2 | 
[V:3] z8 :
[V:4] A,,2D,2B,,2C,2- | 
[V:1] EDD4^C2 | 
[V:2] A2F2E4 | 
[V:3] x8 | 
[V:4] C,2D,2A,,4 | 
[V:1] DEFGA2B2- | 
[V:2] D4d4- | 
[V:3] D8- :
[V:4] A,4F,3G, | 
[V:1] BAG4^F2 | 
[V:2] d2e2fedc | 
[V:3] D8 | 
[V:4] A,2B,2A,4 | 
[V:1] G3AG2c2- | 
[V:2] d2B2c2_e2- | 
[V:3] G8- :
[V:4] G,4C,4- | 
[V:1] c2BAG4 | 
[V:2] edd4c2 | 
[V:3] G8 | 
[V:4] C,2D,2_E,4 | 
[V:1] F8- | 
[V:2] d8- | 
[V:3] A8 :
[V:4] D,8 | 
[V:1] F8 | 
[V:2] d8 | 
[V:3] B8 | 
[V:4] B,,8 | 
[V:1] E8 | 
[V:2] c6G2- | 
[V:3] G8 :
[V:4] C,8- | 
[V:1] G8 | 
[V:2] GFEDE4 | 
[V:3] c8- | 
[V:4] C,8 | 
[V:1] A8- | 
[V:2] F4A2B2 | 
[V:3] c8 :
[V:4] F,,8 | 
[V:1] A4F4 | 
[V:2] c8 | 
[V:3] A8 | 
[V:4] F,8 | 
[V:1] F8 | 
[V:2] B8 | 
[V:3] d8 :
[V:4] B,,8 | 
[V:1] G8- | 
[V:2] G6A2 | 
[V:3] B8 | 
[V:4] _E,8- | 
[V:1] G8 | 
[V:2] B4c4 | 
[V:3] _e8- :
[V:4] E,4C,4 | 
[V:1] z4G4- | 
[V:2] G4c4 | 
[V:3] e8 | 
[V:4] C,6D,2 | 
[V:1] G4A4- | 
[V:2] z2G2F2c2- | 
[V:3] c8 :
[V:4] _E,4F,4 | 
[V:1] A4F4 | 
[V:2] c2BAB3A | 
[V:3] d8 | 
[V:4] D,8 | 
[V:1] G6FE | 
[V:2] c3BG2A2 | 
[V:3] e8 :
[V:4] C,8 | 
[V:1] D4C2D2- | 
[V:2] B4A2F2 | 
[V:3] f8 | 
[V:4] B,,4F,,2B,,2- | 
[V:1] DEF2D2G2- | 
[V:2] G2F4EF | 
[V:3] B8 :
[V:4] B,,C,D,2B,,2_E,2- | 
[V:1] GFEDE2DC | 
[V:2] G4E2F2 | 
[V:3] c8 | 
[V:4] E,D,C,B,,C,2B,,A,, | 
[V:1] B,2D3EF2 | 
[V:2] G2B4A2 | 
[V:3] d8 :
[V:4] G,,2G,3F,D,2 | 
[V:1] G2A3Bc2- | 
[V:2] G2F2A3B | 
[V:3] c8- | 
[V:4] E,2F,3G,A,2- | 
[V:1] cdc2A3G | 
[V:2] c2F2f4 | 
[V:3] c8 :
[V:4] A,G,A,2F,3E, | 
[V:1] B2G3FD2 | 
[V:2] d8 | 
[V:3] B8 | 
[V:4] G,4G,,2B,,2 | 
[V:1] E2F3GA2- | 
[V:2] z2d4c2 | 
[V:3] A8- :
[V:4] C,2D,3E,F,2- | 
[V:1] AG^FEF4 | 
[V:2] A2d3cA2 | 
[V:3] A8 | 
[V:4] F,E,D,C,D,4 | 
[V:1] G2E2D2F2- | 
[V:2] G3AB2A2- | 
[V:3] [M:2/1]z8 | 
[V:4] G,,2C,2B,,2D,2- | 
[V:1] FED4^C2 | 
[V:2] AFG2E4 | 
[V:3] z8 | 
[V:4] D,2G,,2A,,4 | 
[V:1] D4z2D2- | 
[V:2] D3EFGA2 | 
[V:3] z4D4 | 
[V:4] z2A,4F,2 | 
[V:1] D2E2F2D2 | 
[V:2] B2c2d4 | 
[V:3] G4A2B2 | 
[V:4] G,2E,2D,4 | 
[V:1] G4E2A2 | 
[V:2] z2G2c4 | 
[V:3] G2c4A2 | 
[V:4] E,2C,4F,2- | 
[V:1] F2B4G2 | 
[V:2] A2G4B2 | 
[V:3] d2B2_e4 | 
[V:4] F,2G,2_E,4 | 
[V:1] A2B2c2F2 | 
[V:2] A2F2c2d2- | 
[V:3] c2d2e2f2 | 
[V:4] F,2B,,2z2B,2- | 
[V:1] G2A2B2A2- | 
[V:2] def2g2e2 | 
[V:3] B2c2d2c2- | 
[V:4] B,2A,2G,2A,2 | 
[V:1] AGG4^F2 | 
[V:2] f2d4d2 | 
[V:3] c2B2A4 | 
[V:4] F,2G,2D,4 | 
[V:1] G8 ||  
[V:2] d8 ||  
[V:3] G8 ||  
[V:4] G,,8 ||  
[V:1]  [K:F] [K:clef=treble][M:4/2]G8- | 
[V:2]  [K:F] [K:clef=treble-8][M:4/2]z8 | 
[V:3]  [K:F] [K:clef=treble-8][M:4/2]z8 | 
[V:4]  [K:F] [K:clef=bass][M:4/2]z8 | 
[V:1] G4F4 | 
[V:2] z8 | 
[V:3] z8 | 
[V:4] z8 | 
[V:1] G6A2 | 
[V:2] G8- | 
[V:3] z8 | 
[V:4] z8 | 
[V:1] B4c4 | 
[V:2] G4F4 | 
[V:3] z8 | 
[V:4] z8 | 
[V:1] B6A2 | 
[V:2] G6A2 | 
[V:3] z8 | 
[V:4] z8 | 
[V:1] G3FGAB2 | 
[V:2] B8 | 
[V:3] z8 | 
[V:4] z8 | 
[V:1] A2G4FE | 
[V:2] c8 | 
[V:3] z8 | 
[V:4] z8 | 
[V:1] D8- | 
[V:2] B6A2 | 
[V:3] z8 | 
[V:4] z8 | 
[V:1] D8 | 
[V:2] G3FGAB2 | 
[V:3] z8 | 
[V:4] z8 | 
[V:1] E8 | 
[V:2] A2G4FE | 
[V:3] z8 | 
[V:4] z8 | 
[V:1] F4D2F2 | 
[V:2] D8- | 
[V:3] z8 | 
[V:4] z8 | 
[V:1] G2A4GF | 
[V:2] D8 | 
[V:3] z8 | 
[V:4] z8 | 
[V:1] G3AB2c2 | 
[V:2] E8 | 
[V:3] z8 | 
[V:4] z8 | 
[V:1] A4F2A2 | 
[V:2] F4D2F2 | 
[V:3] z8 | 
[V:4] z8 | 
[V:1] B2c4BA | 
[V:2] G2A4GF | 
[V:3] z8 | 
[V:4] z8 | 
[V:1] B3cd2c2- | 
[V:2] G3AB2c2 | 
[V:3] z8 | 
[V:4] z8 | 
[V:1] cBAGA4 | 
[V:2] A4F2A2 | 
[V:3] z8 | 
[V:4] z8 | 
[V:1] G3FE2D2- | 
[V:2] B2c4BA | 
[V:3] z8 | 
[V:4] z8 | 
[V:1] DEF3GAB | 
[V:2] B3cd2c2- | 
[V:3] z8 | 
[V:4] z8 | 
[V:1] A2G4^F2 | 
[V:2] cBAGA4 | 
[V:3] z8 | 
[V:4] z8 | 
[V:1] G2B4AG | 
[V:2] G4z4 | 
[V:3] z8 | 
[V:4] z8 | 
[V:1] B2A4GF | 
[V:2] d8 | 
[V:3] z8 | 
[V:4] z8 | 
[V:1] E4D4 | 
[V:2] c4d4 | 
[V:3] z8 | 
[V:4] z8 | 
[V:1] z8 | 
[V:2] f8 | 
[V:3] z8 | 
[V:4] D,8 | 
[V:1] z8 | 
[V:2] e4d4- | 
[V:3] z8 | 
[V:4] C,4D,4 | 
[V:1] z8 | 
[V:2] d2cBA4 | 
[V:3] z8 | 
[V:4] F,8 | 
[V:1] z8 | 
[V:2] c4d2f2- | 
[V:3] z8 | 
[V:4] E,4D,4- | 
[V:1] z8 | 
[V:2] f2edc2BA | 
[V:3] z8 | 
[V:4] D,2C,B,,A,,4 | 
[V:1] z8 | 
[V:2] G2c2B2A2- | 
[V:3] z8 | 
[V:4] C,4D,2F,2- | 
[V:1] z8 | 
[V:2] ABc3de2- | 
[V:3] z8 | 
[V:4] F,2E,D,C,4 | 
[V:1] z8 | 
[V:2] efg2f2e2- | 
[V:3] z8 | 
[V:4] E,4F,2A,2- | 
[V:1] z8 | 
[V:2] edd4^c2 | 
[V:3] z8 | 
[V:4] A,2F,2E,4 | 
[V:1] z4D4 | 
[V:2] d4G2B2 | 
[V:3] z8 | 
[V:4] D,4z4 | 
[V:1] F8- | 
[V:2] A2d3cd2 | 
[V:3] z8 | 
[V:4] z8 | 
[V:1] F8- | 
[V:2] A2z2A2d2- | 
[V:3] z8 | 
[V:4] z8 | 
[V:1] F8 | 
[V:2] d2cBA4 | 
[V:3] z8 | 
[V:4] z8 | 
[V:1] G8 | 
[V:2] G2B3cd2 | 
[V:3] z8 | 
[V:4] z4G,,2B,,2 | 
[V:1] A8- | 
[V:2] c2f3ed2 | 
[V:3] z8 | 
[V:4] A,,2D,3C,D,2 | 
[V:1] A8- | 
[V:2] edcBA3G | 
[V:3] z8 | 
[V:4] A,,2z2A,,2D,2- | 
[V:1] A8 | 
[V:2] FEG4^F2 | 
[V:3] z8 | 
[V:4] D,2C,B,,A,,4 | 
[V:1] B8 | 
[V:2] G2G3DG2 | 
[V:3] z8 | 
[V:4] G,,4z4 | 
[V:1] A8 | 
[V:2] AGFEF4 | 
[V:3] z8 | 
[V:4] z8 | 
[V:1] G4d4- | 
[V:2] z2B3AB2 | 
[V:3] z8 | 
[V:4] G,2G,3D,G,2 | 
[V:1] d4c4 | 
[V:2] cBAGABcd | 
[V:3] z8 | 
[V:4] A,G,F,E,F,4 | 
[V:1] B6AG | 
[V:2] _e2d4c2 | 
[V:3] z8 | 
[V:4] G,4_E,4 | 
[V:1] F8- | 
[V:2] d2D3EFG | 
[V:3] z8 | 
[V:4] D,2B,,2D,3E, | 
[V:1] F8 | 
[V:2] A2B2c2B2- | 
[V:3] z8 | 
[V:4] F,2B,,2A,,2B,,2 | 
[V:1] z4z2D2- | 
[V:2] B2A2B4 | 
[V:3] z8 | 
[V:4] C,4B,,4 | 
[V:1] DEFGA2B2 | 
[V:2] d3ef2B2 | 
[V:3] z8 | 
[V:4] z8 | 
[V:1] c2B4A2 | 
[V:2] A2B2c4 | 
[V:3] z8 | 
[V:4] z8 | 
[V:1] B4z4 | 
[V:2] B4B2A2- | 
[V:3] z8 | 
[V:4] G,,3A,,B,,C,D,2 | 
[V:1] z8 | 
[V:2] AGG4^F2 | 
[V:3] z8 | 
[V:4] C,2B,,2A,,4 | 
[V:1] B4B2A2- | 
[V:2] G3ABcd2 | 
[V:3] z8 | 
[V:4] G,,2G,3F,D,2 | 
[V:1] AGG4^F2 | 
[V:2] c2B2A4 | 
[V:3] z8 | 
[V:4] F,2G,2D,4 | 
[V:1] G8 | 
[V:2] G2B3AG2 | 
[V:3] z8 | 
[V:4] G,,2z2G,,2B,,2 | 
[V:1] F4D4 | 
[V:2] A2F3EF2 | 
[V:3] z8 | 
[V:4] A,,2B,,3C,D,2 | 
[V:1] G2B3AG2 | 
[V:2] G2_E3FG2 | 
[V:3] z8 | 
[V:4] G,,2z2G,2B,2 | 
[V:1] A2F3EF2 | 
[V:2] D4z2D2 | 
[V:3] z8 | 
[V:4] A,2B,3CD2 | 
[V:1] G2E3FG2 | 
[V:2] E2C2c4 | 
[V:3] z8 | 
[V:4] G,4C,4 | 
[V:1] D3EF2G2 | 
[V:2] B4z2d2 | 
[V:3] z8 | 
[V:4] G,2B,3A,G,2 | 
[V:1] E2A3GFE | 
[V:2] c2A2c3d | 
[V:3] z8 | 
[V:4] A,2F,3E,F,2 | 
[V:1] D2G4E2 | 
[V:2] B2G2B3c | 
[V:3] z8 | 
[V:4] G,2_E,3F,G,2 | 
[V:1] F3ED3C | 
[V:2] A4z2A2 | 
[V:3] z8 | 
[V:4] D,2F,3_E,D,2 | 
[V:1] B,2_E4C2 | 
[V:2] G2_E2G3A | 
[V:3] z8 | 
[V:4] _E,2C,3B,,C,2 | 
[V:1] A,2D3CB,A, | 
[V:2] F2D2F3G | 
[V:3] z8 | 
[V:4] D,2B,,3A,,B,,2 | 
[V:1] G,2C3DEF | 
[V:2] E4z2c2 | 
[V:3] z8 | 
[V:4] C,2A,,3B,,C,2 | 
[V:1] GAB2A2B2 | 
[V:2] B2d3cB2 | 
[V:3] z8 | 
[V:4] G,,4F,,2G,,2 | 
[V:1] A2G4^F2 | 
[V:2] cBAGA4 | 
[V:3] z8 | 
[V:4] A,,2B,,2C,2D,2 | 
[V:1] G8 ||  
[V:2] G8 ||  
[V:3] z8 ||  
[V:4] G,,8 ||  



